X: 16831
T: Harvest Field
R: hornpipe
M: 4/4
K: Gmajor
BA|:GFGA Bd (3d^cd|efge dB (3BAB|efge dBGA|BAAG AcBA|
GFGA Bd (3d^cd|efge dB (3BAB|gfge dBge|1 dBAB G2 BA:|2 dBAB GABd||
|:dbag efge|dBgB BAAB|dbag efge|dg (3fga gfga|
(3bag af gfed|(3efg dB BAAB|GFGA Bd (3d^cd|(3efg fa g2:|

